X: 5481
T: Bungalow, The
R: reel
M: 4/4
K: Amajor
E|A2cA BcdB|efga ecAc|d/d/dfd c/c/cec|Be^df e=dcB|
A2cA BcdB|efga ecAc|defd ceaf|eagb a2(3efg|
abga fgef|decd Befg|abga faec|eagb a2(3efg|
afge fdec|dBcA BGED|CEAB ceaf|ecdB A4|

